X: 177
T:Never Give Over. JaW.176
M:C|
Q:150
C:"...a 3 reel"
S:James Winder Ms, Lancashire, 1835-41
R:Strathspey
O:England
A:Wyresdale,Lancashire
H:1/8
Z:vmp.Chris Partington, Aug 2004
K:D
D/D/D F>G A>cdA|Be-ed d/c/B AF|\
D/D/D F>G A>cd>A|Be e/d/c d2d2:|!
|:d>ef>d gefd|B/B/B ed c>BA>c|\
d>ef>d gefd|B/B/B ec d2d2:|!
|:((3AFD) ((3DFA) ((3BGE) ((3EGB)|((3AFD) ((3DFD) (3ECA, A,2|\
((3AFD) ((3DFA) ((3BGE) ((3EGB)|Ad ((3cBc) d2d2:|]
